X: 40795
T: Townie, The
R: polka
M: 2/4
K: Emajor
|:EF G2|B2 GF|EF G2|G2G2|EF G2|B2 GF|EF G2|F2F2|
EF G2|B2 GF|EF G2|B2(e2|e) fg z|e2c d|ec B2|G2 F2:|
|:GA B2|G2 e2|G2 B2|Bc BA|GA B2|G2 e2|de fz|F2 F2|
EF G2|B2 GF|EF G2|B2 (e2|e) f g z|e2 cd|ec B2|G2 F2:|

